Simply-Blue-Circles/scalable/actions/object-rotate-left.svg

<svg xmlns="http://www.w3.org/2000/svg" width="24" height="24"><path fill="#2c89a0" d="M7.072 9.548L5.657 8.133a7.914 7.914 0 0 0-1.625 3.89h2.02a5.955 5.955 0 0 1 1.02-2.475zm-1.02 4.475h-2.02c.17 1.39.725 2.73 1.625 3.89l1.415-1.415a5.955 5.955 0 0 1-1.02-2.475zm1.01 5.315a7.878 7.878 0 0 0 3.9 1.61v-2.02a5.897 5.897 0 0 1-2.465-1.025zm5.9-14.245v-3.07l-4.55 4.55 4.55 4.45v-3.91c2.835.475 5 2.94 5 5.91s-2.165 5.435-5 5.91v2.02c3.945-.495 7-3.85 7-7.93s-3.055-7.435-7-7.93z"/></svg>

<?xml version="1.0" encoding="UTF-8" standalone="no"?>
<svg
   xmlns:dc="http://purl.org/dc/elements/1.1/"
   xmlns:cc="http://creativecommons.org/ns#"
   xmlns:rdf="http://www.w3.org/1999/02/22-rdf-syntax-ns#"
   xmlns:svg="http://www.w3.org/2000/svg"
   xmlns="http://www.w3.org/2000/svg"
   xmlns:sodipodi="http://sodipodi.sourceforge.net/DTD/sodipodi-0.dtd"
   xmlns:inkscape="http://www.inkscape.org/namespaces/inkscape"
   width="24"
   height="24"
   version="1.1"
   id="svg4"
   sodipodi:docname="object-rotate-left.svg"
   inkscape:version="0.92.4 (5da689c313, 2019-01-14)">
  <metadata
     id="metadata10">
    <rdf:RDF>
      <cc:Work
         rdf:about="">
        <dc:format>image/svg+xml</dc:format>
        <dc:type
           rdf:resource="http://purl.org/dc/dcmitype/StillImage" />
        <dc:title></dc:title>
      </cc:Work>
    </rdf:RDF>
  </metadata>
  <defs
     id="defs8" />
  <sodipodi:namedview
     pagecolor="#ffffff"
     bordercolor="#666666"
     borderopacity="1"
     objecttolerance="10"
     gridtolerance="10"
     guidetolerance="10"
     inkscape:pageopacity="0"
     inkscape:pageshadow="2"
     inkscape:window-width="1078"
     inkscape:window-height="480"
     id="namedview6"
     showgrid="false"
     inkscape:zoom="9.8333333"
     inkscape:cx="-0.81355932"
     inkscape:cy="12"
     inkscape:window-x="0"
     inkscape:window-y="28"
     inkscape:window-maximized="0"
     inkscape:current-layer="svg4" />
  <path
     d="M 7.07,9.55 5.66,8.13 a 7.91,7.91 0 0 0 -1.63,3.9 H 6.05 A 5.96,5.96 0 0 1 7.07,9.55 Z M 6.05,14.02 H 4.03 a 7.91,7.91 0 0 0 1.63,3.9 L 7.07,16.5 A 5.96,5.96 0 0 1 6.05,14.02 Z m 1.01,5.32 a 7.88,7.88 0 0 0 3.9,1.6 V 18.93 A 5.9,5.9 0 0 1 8.5,17.9 Z M 12.96,5.09 V 2.02 l -4.55,4.55 4.55,4.45 v -3.9 a 6,6 0 0 1 0,11.81 v 2.02 a 8,8 0 0 0 0,-15.86 z"
     id="path2"
     inkscape:connector-curvature="0"
     style="fill:#2c89a0" />
</svg>
